X:185
T:Paddy Fahy's Reel
M:4/4
L:1/8
Q:150
C:Traditional
K:D
AG |: FD D2 FAGE | FDFA GECE | FD D2 FGAd |1 cdec dcAG :|2 cdec d2 de ||
fdec Ad d2 | cAGE CDEg | fdec dcAG | Adce d2 de | fdec Ad d2 | cAGE CDE
G | FD D2 FGAd | cdec d2 ||
